svg/fluentui-system-icons/ic_fluent_notebook_add_24_filled.svg

<svg width="24" height="24" viewBox="0 0 24 24" fill="none" xmlns="http://www.w3.org/2000/svg">
<path d="M16.7488 2C17.9915 2 18.9988 3.00736 18.9988 4.25V19.75C18.9988 20.9926 17.9915 22 16.7488 22H11.1904C12.3112 20.8321 13 19.2465 13 17.5C13 13.9101 10.0899 11 6.5 11C5.6141 11 4.76959 11.1772 4 11.4982V4.25C4 3.00736 5.00736 2 6.25 2H16.7488ZM14.7536 5.49739H8.25136C7.87167 5.49739 7.55787 5.77954 7.50821 6.14562L7.50136 6.24739V7.75097C7.50136 8.13067 7.78352 8.44446 8.14959 8.49412L8.25136 8.50097H14.7536C15.1333 8.50097 15.4471 8.21882 15.4968 7.85274L15.5036 7.75097V6.24739C15.5036 5.83317 15.1678 5.49739 14.7536 5.49739Z" fill="#212121"/>
<path d="M20 15.0019H20.75C21.1297 15.0019 21.4435 15.2841 21.4932 15.6502L21.5 15.7519V17.25C21.5 17.6297 21.2178 17.9435 20.8518 17.9932L20.75 18H20V15.0019Z" fill="#212121"/>
<path d="M20 11.0019H20.75C21.1297 11.0019 21.4435 11.2841 21.4932 11.6502L21.5 11.7519V13.25C21.5 13.6297 21.2178 13.9435 20.8518 13.9932L20.75 14H20V11.0019Z" fill="#212121"/>
<path d="M20 7.00194H20.75C21.1297 7.00194 21.4435 7.28409 21.4932 7.65017L21.5 7.75194V9.25C21.5 9.6297 21.2178 9.94349 20.8518 9.99315L20.75 10H20V7.00194Z" fill="#212121"/>
<path d="M12 17.5C12 14.4624 9.53757 12 6.5 12C3.46243 12 1 14.4624 1 17.5C1 20.5376 3.46243 23 6.5 23C9.53757 23 12 20.5376 12 17.5ZM7.00065 18L7.00111 20.5035C7.00111 20.7797 6.77725 21.0035 6.50111 21.0035C6.22497 21.0035 6.00111 20.7797 6.00111 20.5035L6.00065 18H3.4956C3.21973 18 2.99609 17.7762 2.99609 17.5C2.99609 17.2239 3.21973 17 3.4956 17H6.00046L6 14.4993C6 14.2231 6.22386 13.9993 6.5 13.9993C6.77614 13.9993 7 14.2231 7 14.4993L7.00046 17H9.49659C9.77246 17 9.99609 17.2239 9.99609 17.5C9.99609 17.7762 9.77246 18 9.49659 18H7.00065Z" fill="#212121"/>
</svg>

<svg xmlns="http://www.w3.org/2000/svg" width="24" height="24"><path d="M16.749 2a2.25 2.25 0 0 1 2.25 2.25v15.5a2.25 2.25 0 0 1-2.25 2.25H11.19A6.5 6.5 0 0 0 4 11.498V4.25A2.25 2.25 0 0 1 6.25 2h10.499Zm-1.995 3.497H8.25a.75.75 0 0 0-.743.649l-.007.101v1.504c0 .38.283.693.649.743l.101.007h6.503a.75.75 0 0 0 .743-.648l.007-.102V6.247a.75.75 0 0 0-.75-.75ZM20 15.002h.75a.75.75 0 0 1 .743.648l.007.102v1.498a.75.75 0 0 1-.648.743L20.75 18H20v-2.998Zm0-4h.75a.75.75 0 0 1 .743.648l.007.102v1.498a.75.75 0 0 1-.648.743L20.75 14H20v-2.998Zm0-4h.75a.75.75 0 0 1 .743.648l.007.102V9.25a.75.75 0 0 1-.648.743L20.75 10H20V7.002Z"/><path d="M12 17.5a5.5 5.5 0 1 0-11 0 5.5 5.5 0 0 0 11 0ZM7 18l.001 2.503a.5.5 0 1 1-1 0V18H3.496a.5.5 0 0 1 0-1H6v-2.5a.5.5 0 1 1 1 0V17h2.497a.5.5 0 0 1 0 1H7Z"/></svg>
